images/icon-rub.svg

<svg width="22" height="32" viewBox="0 0 22 32" fill="none" xmlns="http://www.w3.org/2000/svg">
<path d="M6.76 23C6.62667 23 6.51333 22.96 6.42 22.88C6.34 22.7867 6.3 22.6733 6.3 22.54V19.98H4.76C4.62667 19.98 4.51333 19.94 4.42 19.86C4.34 19.7667 4.3 19.6533 4.3 19.52V19.06C4.3 18.9267 4.34 18.82 4.42 18.74C4.51333 18.6467 4.62667 18.6 4.76 18.6H6.3V17.46H4.76C4.62667 17.46 4.51333 17.42 4.42 17.34C4.34 17.2467 4.3 17.1333 4.3 17V16.32C4.3 16.1867 4.34 16.08 4.42 16C4.51333 15.9067 4.62667 15.86 4.76 15.86H6.3V9.48C6.3 9.33333 6.34 9.22 6.42 9.14C6.51333 9.04667 6.62667 9 6.76 9H11.84C12.8267 9 13.68 9.16 14.4 9.48C15.1333 9.8 15.7 10.28 16.1 10.92C16.5 11.5467 16.7 12.3333 16.7 13.28C16.7 14.2133 16.5 14.9867 16.1 15.6C15.7 16.2133 15.1333 16.68 14.4 17C13.68 17.3067 12.8267 17.46 11.84 17.46H8.3V18.6H12.16C12.2933 18.6 12.4 18.6467 12.48 18.74C12.5733 18.82 12.62 18.9267 12.62 19.06V19.52C12.62 19.6533 12.5733 19.7667 12.48 19.86C12.4 19.94 12.2933 19.98 12.16 19.98H8.3V22.54C8.3 22.6733 8.25333 22.7867 8.16 22.88C8.08 22.96 7.96667 23 7.82 23H6.76ZM8.28 15.86H11.74C12.7267 15.86 13.4667 15.64 13.96 15.2C14.4533 14.76 14.7 14.12 14.7 13.28C14.7 12.4533 14.46 11.8133 13.98 11.36C13.5 10.9067 12.7533 10.68 11.74 10.68H8.28V15.86Z" fill="black"/>
</svg>

<svg width="22" height="32" fill="none" xmlns="http://www.w3.org/2000/svg"><path d="M6.76 23a.505.505 0 0 1-.34-.12.505.505 0 0 1-.12-.34v-2.56H4.76a.505.505 0 0 1-.34-.12.505.505 0 0 1-.12-.34v-.46c0-.133.04-.24.12-.32a.463.463 0 0 1 .34-.14H6.3v-1.14H4.76a.505.505 0 0 1-.34-.12.505.505 0 0 1-.12-.34v-.68c0-.133.04-.24.12-.32a.463.463 0 0 1 .34-.14H6.3V9.48c0-.147.04-.26.12-.34A.463.463 0 0 1 6.76 9h5.08c.987 0 1.84.16 2.56.48.733.32 1.3.8 1.7 1.44.4.627.6 1.413.6 2.36 0 .933-.2 1.707-.6 2.32-.4.613-.967 1.08-1.7 1.4-.72.307-1.573.46-2.56.46H8.3v1.14h3.86a.4.4 0 0 1 .32.14.4.4 0 0 1 .14.32v.46a.463.463 0 0 1-.14.34.433.433 0 0 1-.32.12H8.3v2.56a.463.463 0 0 1-.14.34c-.08.08-.193.12-.34.12H6.76Zm1.52-7.14h3.46c.987 0 1.727-.22 2.22-.66.493-.44.74-1.08.74-1.92 0-.827-.24-1.467-.72-1.92-.48-.453-1.227-.68-2.24-.68H8.28v5.18Z" fill="#000"/></svg>
